X:40
T:HIDDEN VALLEY/Rose Among the Heather  # 2
M:C
L:1/8
Q:120
S:ABC TUNE FINDER
R:STRATHSPEY
Z:John Chambers <jc@trillian.mit.edu>
K:D
|:"A7"G2 | "D"F<A A>F "G"G<B B>G | "D"F<A D>F "A7"E2 G2 | "D"F<A A>F "G"G>Bd>B | "D/A"A>F "A"  G<E "D"D2 G2 |!
|"D"F<A A>F "G"G<B B>G | "D/F#"F<A "E/G#"D>F "A7"E2 G2 | "D"F<A A>F "G"G>B"G#o"d>B |"D/A"A>F "A"G<E "D"D2 A2 |!
| "D"d>e d>B "/A"A<f d>B |"D" A>F d<f "A7 /G"e4 | "F#7"f>g f>e "G"d<B d>B| "D/A"A>d "A7"e<c "D"d2 A2|!
| "D"d>e "Em" d>B "D/F#" A<f d>B |"G" A>F d<f "A7/Ao"e4  | "Bm" f>e "/A"d>B "G"A<F "Em" d>B | "D/A"A>F "A" G<E "D"D2 :|]
